X: 27243
T: Miss Sarah MacManus
R: reel
M: 4/4
K: Fmajor
FG|Acc=B cAFG|Acc=B c3 d|BddB dBFB|defd edcB|
Acc=B cAFG|Acc=B c3 d|B3 c defd|cAGA F2:|
|:AB|cA (3AAA fA (3AAA|fAgA aA (3AAA|BG (3GGG dG (3GGG|gGfG ecAB|
cA (3AAA fA (3AAA|fAgA aA (3AAA|Bcde fdcB|AFGE F2:|

